X: 16
M:2/4
L:1/8
K:C
e>g g/a/g/e/|(g2g2)|e/eg/ e/d/c/B/|[F4A4]|G/A/B/G/ A/B/G/A/|
|:C/B,/C/D/ E/G/A/B/|[E4c4]|ee/f/ e/d/c/B/|[F4A4]|



